X: 1
T: the Wedding Ring   [Bb]
%R: reel
M: 2/4
L: 1/16
Z: 2011 John Chambers <jc:trillian.mit.edu>
B: Charles & Samuel Thompson eds "Twenty Four Country Dances", London 1774, p.14 #1
K: Bb
% - - - - - - - - - - - - - - - - - - - - - - - - -
|: "Bb"BFDF BdcB | "F7"cAFA cedc | "Bb"dbfd "Eb"g2fe | "Bb"d2cB "F7"A2GF |
   "Bb"BFDF BdcB | "F7"cAFA cedc "I"| "Bb"dbfd "Eb"g2fe | "F7"dcBA "Bb"B4  :|
|: "Bb"BcBA BcBA | Bcde "F/a"f2F2 | "Gm"GAG^F GAG^F | GABc "D7"d2D2 |
   "Eb"EFED EFED | EFGA "Bb/d"B2B,2 | "Cm"C2g2 "F7"fdec | "Bb"B2F2 [B4B,4] :|
% - - - - - - - - Dance description - - - - - - - -
%%begintext align
%% Right hands across Left hands back again .|. cross over &
%% back to back :|. lead thro' the bottom the same thro' the top
%% & cast off .|: lead out sides :|:
%%endtext

%%sep 1 1 500
